X:1
T:Title
%%score { ( 1 2 ) | ( 3 4 ) }
L:1/8
M:3/4
K:Eb
V:1 treble nm="Grand Piano"
V:2 treble 
V:3 bass 
V:4 bass 
V:1
 z2 z2[Q:1/4=108] z F | [B,EG]4 [B,EG][B,EG] | [EGB]4 [B,EG][G,E] | [B,EG]4 [A,DF]2 | %4
 [G,B,E]4 [EGB]2 | c4 AA | e4 dc | [GB]4 [EG]2 |[M:4/4] [DF]6 EF |[M:3/4] G4 GG | [GB]4 GE | %11
 c4 c2 |[M:2/4] B4 |[M:1/4] EF |[M:3/4] G4 GG | [GB]4 GE | [EG]4 [DF]2 |[M:2/4] [B,E]4 | %18
[M:1/4] [GB][GB] |[M:3/4] c4 c2 |[M:2/4] A4 |[M:1/4] cc |[M:3/4] [GB]4 [GB]2 | G4 EF | G4 GG | %25
 [GB]4 GE | [EG]4 [DF]2 |[M:2/4] [B,E]4 |[M:1/4] [GB][GB] |[M:3/4] c4 c2 |[M:2/4] A4 |[M:1/4] cc | %32
[M:3/4] [GB]4 [GB]2 | G4 EF | G4 GG | [EGB]4 [B,EG][=A,E] | [B,EG]4 [A,DF]2 |[M:2/4] [G,B,E]4 |] %38
V:2
 z2 z2 E2 | x6 | x6 | x6 | x6 | x6 | x6 | x6 |[M:4/4] x8 |[M:3/4] x6 | x6 | x6 |[M:2/4] x4 | %13
[M:1/4] x2 |[M:3/4] x6 | x6 | x6 |[M:2/4] x4 |[M:1/4] x2 |[M:3/4] x6 |[M:2/4] x4 |[M:1/4] x2 | %22
[M:3/4] x6 | x6 | x6 | x6 | x6 |[M:2/4] x4 |[M:1/4] x2 |[M:3/4] x6 |[M:2/4] x4 |[M:1/4] x2 | %32
[M:3/4] x6 | x6 | x6 | x6 | x6 |[M:2/4] x4 |] %38
V:3
 z2 z2 G,A, | E,4 E,E, | E,4 E,E, | B,,4 B,,2 | E,4 E,2 | [A,EA]4 [A,CE][A,CE] | %6
 [A,CA]4 [A,DA][A,EA] | [E,E]4 [E,B,]2 |[M:4/4] [B,,B,]6 [E,G,][E,A,E] | %9
[M:3/4] [E,B,E]4 [E,B,E][E,B,E] | [E,E]4 [E,B,E][E,G,] | [A,E]4 [A,E]2 |[M:2/4] [E,G,E]4 | %13
[M:1/4] [E,G,][E,A,E] |[M:3/4] [E,B,E]4 [E,B,E][E,B,E] | [E,E]4 [E,B,E][C,=A,] | %16
 [B,,B,]4 [B,,A,]2 |[M:2/4] [E,G,]4 |[M:1/4] [E,E][E,E] |[M:3/4][K:treble] [A,EA]4 [A,EA]2 | %20
[M:2/4] [A,CE]4 |[M:1/4] [A,EA][A,EA] |[M:3/4][K:bass] [E,E]4 [E,E]2 | [E,B,E]4 [E,G,][E,A,E] | %24
 [E,B,E]4 [E,B,E][E,B,E] | [E,E]4 [E,B,E][C,=A,] | [B,,B,]4 [B,,A,]2 |[M:2/4] [E,G,]4 | %28
[M:1/4] [E,E][E,E] |[M:3/4][K:treble] [A,EA]4 [A,EA]2 |[M:2/4] [A,CE]4 |[M:1/4] [A,EA][A,EA] | %32
[M:3/4][K:bass] [E,E]4 [E,E]2 | [E,B,E]4 [E,G,][E,A,E] | [E,B,E]4 [E,B,E][E,B,E] | E,4 E,C, | %36
 B,,4 B,,2 |[M:2/4] E,4 |] %38
V:4
 z2 z2 E,2 | x6 | x6 | x6 | x6 | x6 | x6 | x6 |[M:4/4] x8 |[M:3/4] x6 | x6 | x6 |[M:2/4] x4 | %13
[M:1/4] x2 |[M:3/4] x6 | x6 | x6 |[M:2/4] x4 |[M:1/4] x2 |[M:3/4][K:treble] x6 |[M:2/4] x4 | %21
[M:1/4] x2 |[M:3/4][K:bass] x6 | x6 | x6 | x6 | x6 |[M:2/4] x4 |[M:1/4] x2 |[M:3/4][K:treble] x6 | %30
[M:2/4] x4 |[M:1/4] x2 |[M:3/4][K:bass] x6 | x6 | x6 | x6 | x6 |[M:2/4] x4 |] %38

